48x48/apps/lutris_sven-co-op.svg

<svg width="48" height="48" version="1" xmlns="http://www.w3.org/2000/svg">
 <path d="m24 4c-11.023 0-20 8.978-20 20 0 11.024 8.978 20 20 20s20-8.977 20-20c0-11.022-8.977-20-20-20z" style="fill:#7fa9ff"/>
 <path d="m24 9a16 16 0 0 0-16 16 16 16 0 0 0 16 16 16 16 0 0 0 16-16 16 16 0 0 0-16-16zm-6.418 4.7109h6.1309l7.0391 17.902 3.0957-1.0078 1.0312 3.4668-6.676 1.928-4.49-11.383-6.584 10.375h-4.1289l9.1953-14.85-1.0312-2.9336h-3.582v-3.498z" style="opacity:.1"/>
 <path d="m24 8a16 16 0 0 0-16 16 16 16 0 0 0 16 16 16 16 0 0 0 16-16 16 16 0 0 0-16-16zm-6.418 4.711h6.131l7.039 17.902 3.096-1.008 1.031 3.467-6.676 1.928-4.49-11.383-6.584 10.375h-4.129l9.195-14.849-1.031-2.934h-3.582v-3.498z" style="fill:#353535"/>
 <path d="m24 4c-11.023 0-20 8.978-20 20 0 0.168 0.0076 0.333 0.0117 0.5 0.2673-10.792 9.1333-19.5 19.988-19.5s19.721 8.708 19.988 19.5c4e-3 -0.167 0.012-0.332 0.012-0.5 0-11.022-8.977-20-20-20z" fill="#fff" opacity=".2"/>
 <path d="m4.0117 24.5c-0.0041 0.167-0.0117 0.332-0.0117 0.5 0 11.024 8.978 20 20 20s20-8.977 20-20c0-0.168-8e-3 -0.333-0.012-0.5-0.267 10.793-9.133 19.5-19.988 19.5s-19.721-8.707-19.988-19.5z" opacity=".2"/>
</svg>

<svg width="48" height="48" version="1" xmlns="http://www.w3.org/2000/svg"><path d="M24 4C12.977 4 4 12.978 4 24c0 11.024 8.978 20 20 20s20-8.977 20-20c0-11.022-8.977-20-20-20z" style="fill:#7fa9ff"/><path d="M24 9A16 16 0 0 0 8 25a16 16 0 0 0 16 16 16 16 0 0 0 16-16A16 16 0 0 0 24 9zm-6.418 4.71h6.13l7.04 17.903 3.096-1.008 1.03 3.467L28.204 36l-4.49-11.383-6.584 10.375H13l9.195-14.85-1.03-2.934h-3.583V13.71z" style="opacity:.1"/><path d="M24 8A16 16 0 0 0 8 24a16 16 0 0 0 16 16 16 16 0 0 0 16-16A16 16 0 0 0 24 8zm-6.418 4.711h6.131l7.039 17.902 3.096-1.008 1.031 3.467L28.203 35l-4.49-11.383-6.584 10.375H13l9.195-14.849-1.031-2.934h-3.582v-3.498z" style="fill:#353535"/><path d="M24 4C12.977 4 4 12.978 4 24c0 .168.008.333.012.5C4.279 13.708 13.145 5 24 5s19.72 8.708 19.988 19.5c.004-.167.012-.332.012-.5 0-11.022-8.977-20-20-20z" fill="#fff" opacity=".2"/><path d="M4.012 24.5c-.004.167-.012.332-.012.5 0 11.024 8.978 20 20 20s20-8.977 20-20c0-.168-.008-.333-.012-.5C43.721 35.293 34.855 44 24 44S4.279 35.293 4.012 24.5z" opacity=".2"/></svg>
